X:285
T:Grumbling Old Man and Growling Old Woman
R:Reel
M:C|
K:Am
|:A,B,|"Am"CA,A,A, CA,A,A,|"G"B,G,G,G, B,G,A,B,|\
"Am"CA,A,A, CA,A,A,|"G"B,G,G,G, "Am"A,2A,B,|
"Am"CA,A,A, CA,A,A,|"G"B,G,G,G, B,G,A,B,|\
"Am"CA,A,A, CA,A,A,|"G"B,G,G,G, "Am"A,2A,:|
K:A
cd|:"A"efed cdef|"G"=ged=c B=G^cd|"A"efed cAcd|"G"ea2^ga2ef|
"A"=gfed cdef|"G"=ged=c B=GBd|"Am"=c2 (3BcB A=GED|"Em"ED =C2"Am"A,2:|

